modules/linea-weather/icons/weather-first-quarter.svg

<svg xmlns="http://www.w3.org/2000/svg" width="64" height="64" viewBox="0 0 64 64"><circle fill="none" stroke="#000" stroke-width="2" stroke-miterlimit="10" cx="32" cy="32" r="31"/><path fill="none" stroke="#000" stroke-width="2" stroke-miterlimit="10" d="M32 5H17m15 6H9m23 6H5m27 6H2m30 6H1m31 34V1m0 34H1m31 6H2m30 6H5m27 6H9m23 6H17"/></svg>

<svg xmlns="http://www.w3.org/2000/svg" width="64" height="64" viewBox="0 0 64 64"><circle fill="none" stroke="#000" stroke-width="2" stroke-miterlimit="10" cx="32" cy="32" r="31"/><path fill="none" stroke="#000" stroke-width="2" stroke-miterlimit="10" d="M32 5H17M32 11H9M32 17H5M32 23H2M32 29H1M32 63V1M32 35H1M32 41H2M32 47H5M32 53H9M32 59H17"/></svg>
